X: 22742
T: Lancer's, The
R: jig
M: 6/8
K: Gmajor
|:B2G B2G|Bdd BAG|ABA ABc|ded BAG|
B2G B2G|Bdd BAG|ABA DEF|1 G3 G2A:|2 G3 G2B||
|:d2B d2B|~G3 GBd|e2c e2c|AFA ABc|
d2B d2B|GFG GAB|ABA DEF|1 G3 G2B:|2 G3 G2A||

